dist/svg/fullscreen.svg

<!-- Generated by Trend Micro Style Portal -->
<svg version="1.1" xmlns="http://www.w3.org/2000/svg" width="16" height="16" viewBox="0 0 16 16">
  <title>fullscreen</title>
  <path fill="rgb(34,34,34)" d="M1 1v5h1.5v-2.8l2.8 2.8 0.7-0.7-2.8-2.8h2.8v-1.5h-5zM13.5 12.8l-2.8-2.8-0.7 0.7 2.8 2.8h-2.8v1.5h5v-5h-1.5v2.8zM5.3 10l-2.8 2.8v-2.8h-1.5v5h5v-1.5h-2.8l2.8-2.8-0.7-0.7zM13.5 1h-3.5v1.5h2.8l-2.8 2.8 0.7 0.7 2.8-2.8v2.8h1.5v-5h-1.5z"></path>
</svg>

<svg width="16" height="16" viewBox="0 0 16 16" fill="rgb(34, 34, 34)" xmlns="http://www.w3.org/2000/svg"><title>fullscreen</title><path d="M1 1V6H2.5V3.2L5.3 6L6 5.3L3.2 2.5H6V1H1ZM13.5 12.8L10.7 10L10 10.7L12.8 13.5H10V15H15V10H13.5V12.8ZM5.3 10L2.5 12.8V10H1V15H6V13.5H3.2L6 10.7L5.3 10ZM13.5 1H10V2.5H12.8L10 5.3L10.7 6L13.5 3.2V6H15V1H13.5Z" fill="rgb(34, 34, 34)" fill-opacity="1.00"/></svg>
